X: 14531
T: Gan Ainm
R: reel
M: 4/4
K: Amixolydian
~A2eA fAeA|~A2eA BAGB|~A2eA e~f3|1 ~g2d=c BAGB:|2 ~g2d=c BAGB||
cA~A2 eaed|cABA dGBd|c~A3 ~e3f|ged=c BGBd|
cABA eaed|cAed cAAc|~d2fd ~c2ec|BgBA GABd||

